X:33
%%score 1 2
%%pagewidth 8in
%%vocalfont Baskerville10Pro 12
T:The Marriage of the Frog and the Mouse
M:3/8
L:1/8
K:G
V:1 clef-treble
V:2 clef-bass octave=-1
V:1
D|[B,DG]G[DFA]|[DGB]dB|G>G[FA]&Dx2|[GB]dB|
w:It was a frog in the well, Hum-ble-dum, hum-ble-dum,
V:2
z|G,3|G,3|B,2D|G3|
V:1
B/c/dB&G3|edB&G3|d>ed/c/&F3|[DB]G:||
w:And the merry mouse in the mill, twee-dle, twee-dle, twi-no.
V:2
GBG|cBG|D3|G2:||

